X:5077
T:Shancoduff
M:6/8
R:Jig
L:1/8
Q:180
C:Aidan Crossey
K:G
|:dBG GAB|cBc ABc|dBG GFG|A3 ABc|
dBG GAB|cBc ABc|BAG FEF|G3 B2c:|| 
|:dBd dBd|cAc cBc|BAB dBG|A3 ABc|
dBd dBd|cAc cBc|BAG FEF|1 G3 B2c:||
2 G3 z3||
